X:1260
L:1/8
M:4/4
K:G
|: (Bc)BA G2 ef | gagB d2 d2 | fefA c2 c2 | ecec dB G2 | BcBA G2 ef | gagB d2 d2 | fgfe dfaf |1 
 g2 g2 g4 :|2 g2 g2 g2 GA |: G2 B<B G2 B<B | c2 e<e c2 e<e | G2 B<B G2 B<B | D2 D<D G2 F<A | 
 G2 B<B G2 B<B | c2 e<e c2 e<e | d2 fe dfaf | g2 g2 g4 :|

